public/assets/img/facebookAlt.svg

<svg height="32" viewBox="0 0 256 256" width="32" xmlns="http://www.w3.org/2000/svg"><g fill="#d8dee9"><path d="m224 128a96 96 0 1 1 -96-96 96 96 0 0 1 96 96z" opacity=".25"/><path d="m128 24a104 104 0 1 0 104 104 104.11 104.11 0 0 0 -104-104zm8 191.63v-63.63h24a8 8 0 0 0 0-16h-24v-24a16 16 0 0 1 16-16h16a8 8 0 0 0 0-16h-16a32 32 0 0 0 -32 32v24h-24a8 8 0 0 0 0 16h24v63.63a88 88 0 1 1 16 0z"/></g></svg>

<svg xmlns="http://www.w3.org/2000/svg" width="32" height="32" viewBox="0 0 256 256" focusable="false">
  <path d="M224,128a96,96,0,1,1-96-96A96,96,0,0,1,224,128Z" fill="#d8dee9" opacity="0.25"></path>
  <path
    fill="#d8dee9"
    id="facebook-solid"
    d="M128,24A104,104,0,1,0,232,128,104.11,104.11,0,0,0,128,24Zm8,191.63V152h24a8,8,0,0,0,0-16H136V112a16,16,0,0,1,16-16h16a8,8,0,0,0,0-16H152a32,32,0,0,0-32,32v24H96a8,8,0,0,0,0,16h24v63.63a88,88,0,1,1,16,0Z"
  ></path>
</svg>
